Sources/FrostedUI/Resources/Icons.xcassets/notificationBellCrossed16.imageset/notification-bell-crossed-16.svg

<svg width="16" height="16" viewBox="0 0 16 16" fill="none" xmlns="http://www.w3.org/2000/svg" data-fui-icon="true">
  <path
    d="M13.1729 5.55273C13.5869 5.55276 13.9227 5.88868 13.9229 6.30273V10.2441C13.9229 10.4638 13.994 10.6742 14.1191 10.8408L14.5195 11.373C15.0477 12.0763 14.6137 13.204 13.625 13.2041H10.6621C10.6048 14.5929 9.50303 15.7498 8.08691 15.75C6.63223 15.75 5.50586 14.5296 5.50586 13.0908V12.4541C5.5061 12.0401 5.84179 11.7041 6.25586 11.7041H12.8945C12.5881 11.2802 12.4229 10.7683 12.4229 10.2441V6.30273C12.423 5.88872 12.7588 5.55284 13.1729 5.55273ZM7.01172 13.2041C7.06574 13.8152 7.55151 14.25 8.08691 14.25C8.62216 14.2498 9.10813 13.815 9.16211 13.2041H7.01172ZM13.4697 0.469727C13.7626 0.176862 14.2374 0.176843 14.5303 0.469727C14.8231 0.762613 14.8231 1.23739 14.5303 1.53027L2.53027 13.5303C2.23739 13.8232 1.76262 13.8231 1.46973 13.5303C1.17683 13.2374 1.17683 12.7626 1.46973 12.4697L13.4697 0.469727ZM8.08691 0.25C8.70192 0.250048 9.29637 0.348526 9.85449 0.532227C10.2477 0.661829 10.4614 1.08617 10.332 1.47949C10.2025 1.87292 9.7782 2.0865 9.38477 1.95703C8.97573 1.82245 8.53994 1.75005 8.08691 1.75C5.72117 1.75 3.75015 3.75853 3.75 6.30273V8C3.75 8.4142 3.41419 8.74997 3 8.75C2.58579 8.75 2.25 8.41421 2.25 8V6.30273C2.25015 2.98964 4.83443 0.25 8.08691 0.25Z"
    fill="currentColor"
  />
</svg>

<svg xmlns="http://www.w3.org/2000/svg" width="16" height="16" fill="none" data-fui-icon="true" viewBox="0 0 16 16"><path fill="currentColor" d="M13.173 5.553a.75.75 0 0 1 .75.75v3.941c0 .22.071.43.196.597l.4.532c.529.703.095 1.831-.894 1.831h-2.963c-.057 1.389-1.159 2.546-2.575 2.546-1.455 0-2.581-1.22-2.581-2.66v-.636a.75.75 0 0 1 .75-.75h6.639a2.5 2.5 0 0 1-.472-1.46V6.303a.75.75 0 0 1 .75-.75m-6.161 7.651c.054.611.54 1.046 1.075 1.046s1.021-.435 1.075-1.046zM13.47.47a.75.75 0 0 1 1.06 1.06l-12 12a.75.75 0 1 1-1.06-1.06zM8.087.25c.615 0 1.21.099 1.767.282a.75.75 0 0 1-.47 1.425 4.1 4.1 0 0 0-1.297-.207C5.72 1.75 3.75 3.759 3.75 6.303V8a.75.75 0 0 1-1.5 0V6.303C2.25 2.99 4.834.25 8.087.25"/></svg>
